public/build/img/sistema/logo-blanco.svg

<svg width="244" height="52" viewBox="0 0 244 52" fill="none" xmlns="http://www.w3.org/2000/svg">
<path d="M72.4328 51.9378C70.9804 51.9378 68.7998 51.8455 66.2926 51.6781C63.2997 51.4782 59.9717 51.1786 56.6683 50.8117C52.6722 50.3678 48.7097 49.8285 44.8906 49.2086C40.4345 48.4852 36.1939 47.6544 32.2867 46.7391C22.8004 44.5169 15.2706 41.8077 9.90652 38.6866C8.39055 37.8046 7.03125 36.8779 5.86637 35.9322C4.64767 34.9428 3.60842 33.9056 2.77751 32.8494C1.91044 31.7473 1.24633 30.594 0.803599 29.4216C0.342624 28.2008 0.108887 26.9256 0.108887 25.6311C0.108887 24.3092 0.366693 23.013 0.875165 21.7785C1.36454 20.5903 2.09924 19.4274 3.05881 18.322C3.98068 17.26 5.13466 16.2229 6.48868 15.2395C7.78655 14.2968 9.30246 13.3786 10.9943 12.5103C17.0287 9.41316 25.5544 6.79548 36.3347 4.72994C40.8463 3.86551 45.7713 3.09621 50.973 2.44342C55.4924 1.87626 60.237 1.39439 65.075 1.0112C69.1869 0.685514 73.2847 0.436502 77.2546 0.271074C81.4305 0.0970682 84.3834 0.0605469 86.1252 0.0605469C86.9242 0.0605469 87.6407 0.0682224 88.2548 0.0833776C88.6957 0.0942522 89.0245 0.109596 89.2601 0.13026C89.4731 0.148954 89.5626 0.168322 89.5989 0.179445C89.5614 0.198589 89.4517 0.240276 89.1358 0.30688C88.8388 0.369511 88.4103 0.444214 87.8259 0.535249C86.7053 0.709796 85.1389 0.92519 83.1557 1.19789C73.8047 2.48374 56.3988 4.8772 41.215 9.12547C22.5746 14.3409 13.1231 20.7406 13.1231 28.1467C13.1231 36.1927 21.1254 42.3907 36.9076 46.5686C49.5955 49.9274 63.6508 51.0342 70.4054 51.5661C71.4559 51.6488 72.2856 51.7141 72.8857 51.771C73.1977 51.8006 73.4299 51.8263 73.5957 51.8497C73.6796 51.8614 73.739 51.8717 73.7809 51.88C73.6467 51.9031 73.3007 51.9378 72.4328 51.9378Z" fill="white"/>
<path d="M86.1253 0.122752C84.3853 0.122752 81.4353 0.159252 77.2628 0.333114C73.2953 0.498438 69.1999 0.747309 65.0903 1.07281C60.2551 1.45577 55.5134 1.93735 50.9968 2.50416C45.799 3.15646 40.8778 3.92515 36.3699 4.78888C25.6039 6.85168 17.0911 9.46507 11.0678 12.5565C9.38061 13.4224 7.86898 14.338 6.57492 15.2779C5.22545 16.2581 4.07545 17.2916 3.15685 18.3498C2.20088 19.451 1.46897 20.6095 0.981453 21.7932C0.474867 23.0232 0.217991 24.3147 0.217991 25.6319C0.217991 26.9221 0.450924 28.1931 0.910337 29.4096C1.35148 30.5779 2.01327 31.7271 2.87728 32.8254C3.7054 33.8781 4.74125 34.9119 5.95605 35.8981C7.11756 36.841 8.47308 37.7651 9.98496 38.6448C15.3387 41.7598 22.8562 44.4643 32.3286 46.6833C36.2321 47.5977 40.4687 48.4277 44.9209 49.1504C48.737 49.7698 52.6965 50.3088 56.6895 50.7523C63.686 51.5294 69.6379 51.8772 72.4329 51.8772C72.7569 51.8772 73.0058 51.8725 73.197 51.8654C73.0873 51.8537 72.9582 51.8408 72.8064 51.8266C72.2123 51.7711 71.4083 51.7078 70.3904 51.6277C63.6305 51.0954 49.5641 49.9877 36.8613 46.625C21.0376 42.4361 13.0143 36.2194 13.0143 28.1476C13.0143 20.7161 22.4861 14.298 41.1666 9.07134C56.3613 4.82003 73.7748 2.42552 83.13 1.1391C85.0563 0.874215 86.5778 0.664995 87.6903 0.49346C88.2696 0.404134 88.7008 0.330585 89.0085 0.26862C89.1447 0.241192 89.2459 0.218075 89.3209 0.199113C89.2831 0.195202 89.2393 0.191187 89.1887 0.187182C88.9636 0.169351 88.6479 0.155338 88.2501 0.145527C87.6378 0.130412 86.9229 0.122752 86.1253 0.122752ZM86.1253 0C86.9446 0 87.658 0.00805008 88.2597 0.0228916C102.104 0.364494 13.2323 5.44558 13.2323 28.1476C13.2323 50.8496 77.2995 51.263 73.8366 51.9352C73.62 51.9772 73.1397 52 72.4329 52C61.8421 52 0 46.9137 0 25.6319C0 3.91648 68.0907 0 86.1253 0Z" fill="white"/>
<path d="M142.68 51.7619C141.847 51.7619 141.1 51.7547 140.459 51.7403C140.005 51.7302 139.666 51.7155 139.422 51.6954C139.209 51.6777 139.115 51.6592 139.074 51.648C139.119 51.6273 139.243 51.585 139.587 51.5172C139.915 51.4528 140.386 51.3759 141.029 51.2821C142.261 51.1024 143.979 50.8806 146.154 50.5997C156.056 49.3212 174.488 46.9413 190.447 42.8472C210.012 37.8279 219.933 31.7448 219.933 24.7669C219.933 17.1405 211.401 11.3316 194.574 7.50142C181.062 4.4258 165.616 3.46625 159.021 3.05651C157.94 2.98937 157.086 2.93634 156.468 2.88933C156.147 2.86488 155.908 2.84337 155.736 2.82357C155.676 2.81656 155.627 2.81018 155.589 2.8045C155.831 2.77303 156.31 2.75586 156.955 2.75586C158.469 2.75586 160.743 2.84301 163.358 3.00126C166.478 3.19015 169.948 3.47324 173.393 3.81992C177.559 4.23929 181.691 4.74892 185.672 5.33466C190.319 6.01811 194.74 6.80315 198.814 7.66798C208.704 9.76768 216.555 12.3275 222.148 15.2764C223.728 16.1097 225.145 16.9852 226.359 17.8785C227.63 18.8131 228.713 19.7927 229.579 20.7903C230.482 21.8312 231.174 22.9203 231.636 24.0274C232.116 25.1801 232.36 26.3843 232.36 27.6066C232.36 28.8548 232.091 30.0787 231.561 31.2444C231.051 32.3664 230.286 33.4646 229.286 34.5085C228.325 35.5116 227.122 36.4911 225.711 37.4201C224.358 38.3107 222.777 39.1782 221.014 39.9985C214.722 42.9249 205.833 45.3983 194.593 47.35C189.889 48.1668 184.754 48.8936 179.331 49.5104C174.619 50.0463 169.672 50.5016 164.628 50.8637C160.34 51.1714 156.068 51.4067 151.929 51.563C147.575 51.7274 144.496 51.7619 142.68 51.7619Z" fill="white"/>
<path d="M142.68 51.7014C144.495 51.7014 147.571 51.6669 151.922 51.5026C156.059 51.3464 160.329 51.1112 164.614 50.8036C169.655 50.4418 174.6 49.9867 179.309 49.4511C184.729 48.8347 189.86 48.1083 194.561 47.2922C205.787 45.3428 214.664 42.8733 220.944 39.952C222.703 39.1339 224.279 38.2689 225.628 37.381C227.034 36.4554 228.233 35.4794 229.19 34.4802C230.186 33.4407 230.948 32.3472 231.456 31.23C231.983 30.0693 232.251 28.8505 232.251 27.6075C232.251 26.3899 232.008 25.1903 231.53 24.0422C231.07 22.9396 230.381 21.8548 229.481 20.8181C228.618 19.8242 227.539 18.848 226.273 17.9167C225.062 17.026 223.649 16.153 222.073 15.322C216.491 12.3787 208.653 9.82307 198.775 7.72624C194.705 6.86216 190.287 6.07778 185.645 5.39487C181.666 4.80954 177.537 4.30025 173.374 3.88116C166.077 3.14678 159.87 2.81806 156.955 2.81806C156.74 2.81806 156.556 2.81988 156.4 2.82292C156.445 2.82641 156.491 2.83 156.541 2.83368C157.153 2.87955 157.982 2.93109 159.033 2.99634C165.633 3.40636 181.089 4.36655 194.615 7.44535C211.487 11.2858 220.042 17.1138 220.042 24.7677C220.042 31.7718 210.1 37.8737 190.492 42.9039C174.523 47.0006 156.084 49.3813 146.178 50.6604C144.06 50.9338 142.388 51.1498 141.164 51.3267C140.526 51.419 140.052 51.4948 139.714 51.5586C139.565 51.5866 139.454 51.6102 139.372 51.6296C139.407 51.6329 139.447 51.6363 139.492 51.6397C139.725 51.6571 140.052 51.6706 140.464 51.6798C141.102 51.6941 141.848 51.7014 142.68 51.7014ZM142.68 51.8241C141.826 51.8241 141.082 51.8165 140.455 51.8025C126.022 51.4797 219.824 46.2162 219.824 24.7677C219.824 3.31917 151.881 3.39158 155.491 2.75652C155.717 2.71679 156.218 2.69531 156.955 2.69531C167.996 2.69531 232.469 7.50078 232.469 27.6075C232.469 48.1239 161.482 51.8241 142.68 51.8241Z" fill="white"/>
<path d="M32.5739 22.5432L37.1339 19.7832H45.3739V24.5032H37.4539V29.0232H45.3739V33.7032H37.1339L32.5739 30.9832V22.5432ZM60.1339 31.7832L55.4139 29.0232H47.1739V33.7032H55.0939V38.2632H47.3339V42.7832H55.4139L60.1339 40.0632V31.7832ZM37.6139 35.5032V38.2632H45.3739V42.7832H37.2539L32.5739 40.0632V35.5032H37.6139ZM60.1339 27.2232V22.5432L55.4139 19.7832H47.1739V24.5032H55.0939V27.2232H60.1339ZM66.138 22.5432L70.698 19.7832H78.938V24.3032H71.178V29.0232H78.938V33.5832H71.178V42.7832H66.138V22.5432ZM93.698 22.5432L88.978 19.7832H80.738V24.3032H88.658V29.0232H80.738V33.5832H88.658V42.7832H93.698V22.5432ZM97.6224 22.5432L102.302 19.7832H110.582V24.3032H102.822V38.1032H110.422V42.7832H102.302L97.6224 40.0632V22.5432ZM120.142 35.3432V38.1032H112.542V42.7832H120.662L125.342 40.0632V35.3432H120.142ZM125.342 27.1032V22.5432L120.662 19.7832H112.382V24.3032H120.142V27.1032H125.342ZM131.724 19.7832H136.764V42.7832H131.724V19.7832ZM143.969 19.7832H148.529L156.769 27.5432V33.5832L149.009 26.1032V42.7832H143.969V19.7832ZM166.489 36.3032V19.7832H171.529V42.7832H166.809L158.569 34.8632V29.0232L166.489 36.3032ZM180.476 19.7832L188.716 33.5832V42.7832L175.916 21.2632L180.476 19.7832ZM198.956 19.7832L190.676 33.5832V42.7832L203.476 21.2632L198.956 19.7832Z" fill="white"/>
</svg>

<svg width="244" height="52" fill="none" xmlns="http://www.w3.org/2000/svg"><path d="M72.433 51.938c-1.453 0-3.633-.093-6.14-.26a237.551 237.551 0 01-21.402-2.47 186.948 186.948 0 01-12.604-2.469c-9.487-2.222-17.016-4.931-22.38-8.052-1.516-.882-2.876-1.81-4.04-2.755-1.22-.99-2.259-2.026-3.09-3.083-.867-1.102-1.53-2.255-1.973-3.427a10.694 10.694 0 01-.695-3.79c0-1.323.258-2.619.766-3.854.49-1.188 1.224-2.35 2.184-3.456.922-1.062 2.076-2.1 3.43-3.082 1.298-.943 2.813-1.861 4.505-2.73 6.035-3.097 14.56-5.715 25.34-7.78 4.512-.864 9.437-1.634 14.639-2.287 4.52-.567 9.264-1.049 14.102-1.432 4.112-.325 8.21-.574 12.18-.74 4.175-.174 7.128-.21 8.87-.21.8 0 1.516.007 2.13.022.44.011.77.027 1.005.047.213.019.303.038.339.05-.038.019-.147.06-.463.127a26.54 26.54 0 01-1.31.228c-1.12.175-2.687.39-4.67.663-9.351 1.286-26.757 3.68-41.941 7.927-18.64 5.216-28.092 11.616-28.092 19.022 0 8.046 8.002 14.244 23.785 18.422 12.688 3.358 26.743 4.465 33.497 4.997 1.05.083 1.88.148 2.48.205.313.03.545.055.71.079.085.011.144.022.186.03-.134.023-.48.058-1.348.058z" fill="#fff"/><path d="M86.125.123c-1.74 0-4.69.036-8.862.21-3.968.165-8.063.414-12.173.74-4.835.383-9.577.864-14.093 1.431-5.198.652-10.12 1.421-14.627 2.285-10.766 2.063-19.279 4.676-25.302 7.768-1.687.865-3.199 1.781-4.493 2.72-1.35.981-2.5 2.015-3.418 3.073-.957 1.1-1.688 2.26-2.177 3.443a10.033 10.033 0 00-.763 3.839c0 1.29.233 2.561.692 3.778.441 1.168 1.103 2.317 1.967 3.415.828 1.053 1.864 2.087 3.08 3.073 1.16.943 2.516 1.867 4.028 2.747 5.354 3.115 12.871 5.82 22.344 8.038 3.903.915 8.14 1.745 12.592 2.467a236.02 236.02 0 0011.769 1.602c6.996.777 12.948 1.125 15.743 1.125.324 0 .573-.005.764-.012l-.39-.038a175.75 175.75 0 00-2.417-.2c-6.76-.532-20.826-1.64-33.529-5.002-15.823-4.189-23.847-10.406-23.847-18.477 0-7.432 9.472-13.85 28.153-19.077C56.36 4.82 73.775 2.426 83.13 1.14c1.926-.265 3.448-.474 4.56-.646.58-.09 1.01-.163 1.32-.224a6.65 6.65 0 00.312-.07 18.426 18.426 0 00-1.07-.054 87.644 87.644 0 00-2.126-.022zm0-.123c.82 0 1.533.008 2.135.023 13.844.341-75.028 5.423-75.028 28.125 0 22.702 64.067 23.115 60.605 23.787-.217.042-.697.065-1.404.065C61.843 52 0 46.914 0 25.632 0 3.916 68.09 0 86.125 0zm56.555 51.762c-.833 0-1.58-.007-2.221-.022a18.4 18.4 0 01-1.037-.045 2.127 2.127 0 01-.348-.047c.045-.02.169-.063.513-.13.328-.065.799-.142 1.442-.236 1.232-.18 2.95-.401 5.125-.682 9.902-1.279 28.334-3.659 44.293-7.753 19.565-5.02 29.486-11.102 29.486-18.08 0-7.627-8.532-13.435-25.359-17.266-13.512-3.075-28.958-4.035-35.553-4.444-1.081-.068-1.935-.12-2.553-.168-.321-.024-.56-.046-.732-.065a4.786 4.786 0 01-.147-.02c.242-.031.721-.048 1.366-.048 1.514 0 3.788.087 6.403.245a271.741 271.741 0 0122.314 2.333 212.9 212.9 0 0113.142 2.334c9.89 2.1 17.741 4.66 23.334 7.608 1.58.834 2.997 1.71 4.211 2.602 1.271.935 2.354 1.915 3.22 2.912.903 1.041 1.595 2.13 2.057 3.237a9.27 9.27 0 01.724 3.58 8.737 8.737 0 01-.799 3.637c-.51 1.122-1.275 2.22-2.275 3.264-.961 1.004-2.164 1.983-3.575 2.912-1.353.89-2.934 1.758-4.697 2.578-6.292 2.927-15.181 5.4-26.421 7.352-4.704.817-9.839 1.544-15.262 2.16a357.05 357.05 0 01-14.703 1.354 377.1 377.1 0 01-12.699.699c-4.354.164-7.433.199-9.249.199z" fill="#fff"/><path d="M142.68 51.701c1.815 0 4.891-.034 9.242-.198 4.137-.157 8.407-.392 12.692-.7 5.041-.361 9.986-.816 14.695-1.352 5.42-.616 10.551-1.343 15.252-2.159 11.226-1.95 20.103-4.419 26.383-7.34 1.759-.818 3.335-1.683 4.684-2.571 1.406-.926 2.605-1.902 3.562-2.9.996-1.04 1.758-2.134 2.266-3.251a8.71 8.71 0 00.795-3.622 9.235 9.235 0 00-.721-3.566c-.46-1.102-1.149-2.187-2.049-3.224-.863-.994-1.942-1.97-3.208-2.901-1.211-.891-2.624-1.764-4.2-2.595-5.582-2.943-13.42-5.499-23.298-7.596a212.799 212.799 0 00-13.13-2.331 271.752 271.752 0 00-12.271-1.514c-7.297-.734-13.504-1.063-16.419-1.063-.215 0-.399.002-.555.005l.141.01c.612.047 1.441.098 2.492.163 6.6.41 22.056 1.37 35.582 4.45 16.872 3.84 25.427 9.668 25.427 17.322 0 7.004-9.942 13.106-29.55 18.136-15.969 4.097-34.408 6.477-44.314 7.756-2.118.274-3.79.49-5.014.667a36.49 36.49 0 00-1.45.232 7.66 7.66 0 00-.342.07 19.878 19.878 0 001.092.05 96.31 96.31 0 002.216.022zm0 .123c-.854 0-1.598-.008-2.225-.021-14.433-.323 79.369-5.587 79.369-27.035 0-21.449-67.943-21.376-64.333-22.011.226-.04.727-.062 1.464-.062 11.041 0 75.514 4.806 75.514 24.913 0 20.516-70.987 24.216-89.789 24.216z" fill="#fff"/><path d="M32.574 22.543l4.56-2.76h8.24v4.72h-7.92v4.52h7.92v4.68h-8.24l-4.56-2.72v-8.44zm27.56 9.24l-4.72-2.76h-8.24v4.68h7.92v4.56h-7.76v4.52h8.08l4.72-2.72v-8.28zm-22.52 3.72v2.76h7.76v4.52h-8.12l-4.68-2.72v-4.56h5.04zm22.52-8.28v-4.68l-4.72-2.76h-8.24v4.72h7.92v2.72h5.04zm6.004-4.68l4.56-2.76h8.24v4.52h-7.76v4.72h7.76v4.56h-7.76v9.2h-5.04v-20.24zm27.56 0l-4.72-2.76h-8.24v4.52h7.92v4.72h-7.92v4.56h7.92v9.2h5.04v-20.24zm3.924 0l4.68-2.76h8.28v4.52h-7.76v13.8h7.6v4.68h-8.12l-4.68-2.72v-17.52zm22.52 12.8v2.76h-7.6v4.68h8.12l4.68-2.72v-4.72h-5.2zm5.2-8.24v-4.56l-4.68-2.76h-8.28v4.52h7.76v2.8h5.2zm6.382-7.32h5.04v23h-5.04v-23zm12.245 0h4.56l8.24 7.76v6.04l-7.76-7.48v16.68h-5.04v-23zm22.52 16.52v-16.52h5.04v23h-4.72l-8.24-7.92v-5.84l7.92 7.28zm13.987-16.52l8.24 13.8v9.2l-12.8-21.52 4.56-1.48zm18.48 0l-8.28 13.8v9.2l12.8-21.52-4.52-1.48z" fill="#fff"/></svg>
